icons/doubleclick.svg

<?xml version="1.0" encoding="UTF-8"?>
<svg width="256px" height="205px" viewBox="0 0 256 205" version="1.1" xmlns="http://www.w3.org/2000/svg" xmlns:xlink="http://www.w3.org/1999/xlink" preserveAspectRatio="xMidYMid">
    <defs>
        <linearGradient x1="49.9994043%" y1="0.296202532%" x2="49.9994043%" y2="99.9797468%" id="linearGradient-1">
            <stop stop-color="#FFFFFF" stop-opacity="0.6" offset="0%"></stop>
            <stop stop-color="#FFFFFF" stop-opacity="0.1" offset="60%"></stop>
        </linearGradient>
        <linearGradient x1="49.9994039%" y1="99.4325893%" x2="49.9994039%" y2="-0.0897321429%" id="linearGradient-2">
            <stop stop-color="#FFFFFF" stop-opacity="0.6" offset="0%"></stop>
            <stop stop-color="#FFFFFF" stop-opacity="0.1" offset="60%"></stop>
        </linearGradient>
        <linearGradient x1="32.5394422%" y1="17.4876133%" x2="77.9446215%" y2="128.203927%" id="linearGradient-3">
            <stop stop-color="#FFFFFF" stop-opacity="0.5" offset="0%"></stop>
            <stop stop-color="#FFFFFF" stop-opacity="0.03" offset="75%"></stop>
        </linearGradient>
        <linearGradient x1="5.23925362%" y1="50.0280597%" x2="136.164889%" y2="50.0280597%" id="linearGradient-4">
            <stop stop-color="#FFFFFF" stop-opacity="0.9" offset="0%"></stop>
            <stop stop-color="#FFFFFF" stop-opacity="0.1" offset="60%"></stop>
        </linearGradient>
    </defs>
	<g>
		<path d="M128,3.51306152 C172.466553,15.5375977 203.494443,53.7904762 204.256348,100.419048 L204.256348,104.110352 C202.86084,131.175293 181.475935,153.452881 154.047363,153.452881 C144.752125,153.452881 135.466667,151.314286 128.152381,146.895238 C112.761905,138.057143 102.552381,121.6 102.552381,102.4 C102.552381,83.2 112.914286,67.047619 128,57.9047619 C120.533333,53.4857143 111.089183,50.3920898 101.793945,50.3920898 C74.060612,50.3920898 51.6345006,72.9904762 50.7202148,100.419048 L50.7202148,105.088379 C51.4821196,152.021712 84.7238095,190.47619 128.304762,201.447619 C136.533333,203.580952 145.066667,204.8 153.752381,204.8 C210.285714,204.8 256,158.933333 256,102.552381 C256,45.8666667 210.133333,1.70530257e-13 153.6,1.70530257e-13 C144.761905,-2.70682947e-15 136.228571,1.22734724 128,3.51306152 Z" fill="#369647"></path>
		<path d="M127.847619,3.35238095 C119.619048,1.21904762 111.085714,0 102.4,0 C45.8666667,0 0,45.8666667 0,102.4 C0,158.933333 45.8666667,204.647619 102.247619,204.647619 C111.085714,204.647619 119.466667,203.580952 127.695238,201.295238 C84.4190476,190.019048 51.9619048,151.161905 51.2,104.228571 L51.2,100.266667 C52.2666667,72.8380952 74.8190476,50.8952381 102.247619,50.8952381 C111.542857,50.8952381 120.380952,53.3333333 127.695238,57.752381 C143.085714,66.5904762 153.142857,83.047619 153.142857,102.247619 C153.142857,121.447619 142.780952,137.586025 127.695238,146.728882 C135.314286,150.843168 140.789062,153.36792 153.44165,153.763916 C181.161411,154.631479 204.043945,132.087891 204.647619,100.419048 C203.885714,53.4857143 171.428571,14.3238095 127.847619,3.35238095 Z" fill="#AEEA00"></path>
		<path d="M204.647619,100.419048 C203.885714,53.4857143 171.428571,14.3238095 127.847619,3.35238095 C119.619048,1.21904762 111.085714,0 102.4,0 C45.8666667,0 0,45.8666667 0,102.4 C0,158.933333 45.8666667,204.647619 102.247619,204.647619 C111.085714,204.647619 119.466667,203.580952 127.695238,201.295238 C84.4190476,190.019048 51.9619048,151.161905 51.2,104.228571 L51.2,100.266667 C52.2666667,72.8380952 74.8190476,50.8952381 102.247619,50.8952381 C111.542857,50.8952381 120.380952,53.3333333 127.695238,57.752381 C143.085714,66.5904762 153.142857,83.047619 153.142857,102.247619 C153.142857,121.447619 142.780952,137.6 127.695238,146.742857 C135.314286,150.857143 144.152381,153.6 153.447619,153.6 C181.180952,153.6 203.580952,131.657143 204.495238,104.228571 L204.495238,102.247619 C204.647619,101.790476 204.647619,101.028571 204.647619,100.419048 L204.647619,100.419048 Z" fill="url(#linearGradient-1)" opacity="0.15"></path>
		<path d="M153.6,0 C144.761905,0 136.380952,1.06666667 128.152381,3.35238095 C171.733333,14.6285714 204.190476,53.7904762 204.952381,100.419048 L204.952381,104.380952 C203.885714,131.809524 181.028571,153.752381 153.6,153.752381 C144.304762,153.752381 135.466667,151.314286 128.152381,146.895238 C112.761905,138.057143 102.552381,121.6 102.552381,102.4 C102.552381,83.2 112.914286,67.047619 128,57.9047619 C120.533333,53.4857143 111.847619,51.047619 102.552381,51.047619 C74.8190476,51.047619 52.4190476,72.9904762 51.5047619,100.419048 L51.5047619,104.380952 C52.2666667,151.314286 84.7238095,190.47619 128.304762,201.447619 C136.533333,203.580952 145.066667,204.8 153.752381,204.8 C210.285714,204.8 256,158.933333 256,102.552381 C256,45.8666667 210.133333,1.73237086e-13 153.6,1.73237086e-13 L153.6,0 Z" fill="url(#linearGradient-2)" opacity="0.15"></path>
		<path d="M127.764558,201.295238 C84.488368,190.019048 52.0312251,151.161905 51.2693204,104.228571 L51.2693204,103.92381 L51.2693204,104.685714 C51.8788442,144.457143 66.0502728,179.809524 88.2978918,203.733333 C93.0217013,204.342857 97.5931299,204.8 102.316939,204.8 C111.002654,204.495238 119.840749,203.428571 127.764558,201.295238 Z" fill="url(#linearGradient-3)" opacity="0.4"></path>
		<path d="M113.362526,66.3619048 C114.124431,66.6666667 115.530332,67.2296991 116.292236,67.3820801 C119.644617,63.8773182 123.819064,60.2794038 127.93335,57.8413086 C120.466683,53.422261 111.258861,50.9321289 101.963623,50.9321289 C74.2302897,50.9321289 51.8006217,73.2190476 51.0387169,100.647619 L50.886336,102.32381 C50.5815741,101.714286 50.733955,101.104762 51.0387169,100.647619 C58.9625265,74.2857143 86.3910979,58.8952381 113.362526,66.3619048 Z" fill="url(#linearGradient-4)" opacity="0.25"></path>
	</g>
</svg>

<svg xmlns="http://www.w3.org/2000/svg" viewBox="0 0 256 204.8">
  <defs>
    <linearGradient id="a" x1="102.323" x2="102.323" y1=".606" y2="204.606" gradientUnits="userSpaceOnUse">
      <stop offset="0%" stop-color="#FFF" stop-opacity=".6"/>
      <stop offset="60%" stop-color="#FFF" stop-opacity=".1"/>
    </linearGradient>
    <linearGradient id="b" x1="153.866" x2="153.866" y1="203.486" y2="-.184" gradientTransform="scale(.99926 1.00074)" gradientUnits="userSpaceOnUse">
      <stop offset="0%" stop-color="#FFF" stop-opacity=".6"/>
      <stop offset="60%" stop-color="#FFF" stop-opacity=".1"/>
    </linearGradient>
    <linearGradient id="c" x1="87.459" x2="127.345" y1="105.86" y2="203.117" gradientTransform="scale(.8708 1.14836)" gradientUnits="userSpaceOnUse">
      <stop offset="0%" stop-color="#FFF" stop-opacity=".5"/>
      <stop offset="75%" stop-color="#FFF" stop-opacity=".03"/>
    </linearGradient>
    <linearGradient id="d" x1="44.68" x2="127.153" y1="93.944" y2="93.944" gradientTransform="scale(1.22574 .81583)" gradientUnits="userSpaceOnUse">
      <stop offset="0%" stop-color="#FFF" stop-opacity=".9"/>
      <stop offset="60%" stop-color="#FFF" stop-opacity=".1"/>
    </linearGradient>
  </defs>
  <path fill="#369647" d="M128 3.513c44.467 12.025 75.494 50.277 76.256 96.906v3.691c-1.395 27.065-22.78 49.343-50.209 49.343-9.295 0-18.58-2.139-25.895-6.558-15.39-8.838-25.6-25.295-25.6-44.495 0-19.2 10.362-35.352 25.448-44.495-7.467-4.42-16.91-7.513-26.206-7.513-27.733 0-50.16 22.598-51.074 50.027v4.67c.762 46.933 34.004 85.387 77.585 96.359 8.228 2.133 16.762 3.352 25.447 3.352C210.286 204.8 256 158.933 256 102.552 256 45.867 210.133 0 153.6 0c-8.838 0-17.371 1.227-25.6 3.513z"/>
  <path fill="#aeea00" d="M127.848 3.352C119.619 1.22 111.086 0 102.4 0 45.867 0 0 45.867 0 102.4c0 56.533 45.867 102.248 102.248 102.248 8.838 0 17.219-1.067 25.447-3.353C84.42 190.02 51.962 151.162 51.2 104.23v-3.962c1.067-27.429 23.619-49.372 51.048-49.372 9.295 0 18.133 2.438 25.447 6.857 15.39 8.838 25.448 25.296 25.448 44.496 0 19.2-10.362 35.338-25.448 44.48 7.62 4.115 13.094 6.64 25.747 7.036 27.72.867 50.602-21.676 51.206-53.345-.762-46.933-33.22-86.095-76.8-97.067z"/>
  <path fill="url(#a)" d="M204.648 100.419c-.762-46.933-33.22-86.095-76.8-97.067C119.619 1.22 111.086 0 102.4 0 45.867 0 0 45.867 0 102.4c0 56.533 45.867 102.248 102.248 102.248 8.838 0 17.219-1.067 25.447-3.353C84.42 190.02 51.962 151.162 51.2 104.23v-3.962c1.067-27.429 23.619-49.372 51.048-49.372 9.295 0 18.133 2.438 25.447 6.857 15.39 8.838 25.448 25.296 25.448 44.496 0 19.2-10.362 35.352-25.448 44.495 7.62 4.114 16.457 6.857 25.753 6.857 27.733 0 50.133-21.943 51.047-49.371v-1.981c.153-.458.153-1.22.153-1.829z" opacity=".15" style="fill:url(#a)"/>
  <path fill="url(#b)" d="M153.6 0c-8.838 0-17.22 1.067-25.448 3.352 43.581 11.277 76.038 50.438 76.8 97.067v3.962c-1.066 27.429-23.923 49.371-51.352 49.371-9.295 0-18.133-2.438-25.448-6.857-15.39-8.838-25.6-25.295-25.6-44.495 0-19.2 10.362-35.352 25.448-44.495-7.467-4.42-16.152-6.857-25.448-6.857-27.733 0-50.133 21.942-51.047 49.371v3.962c.762 46.933 33.219 86.095 76.8 97.067 8.228 2.133 16.762 3.352 25.447 3.352C210.286 204.8 256 158.933 256 102.552 256 45.867 210.133 0 153.6 0z" opacity=".15" style="fill:url(#b)"/>
  <path fill="url(#c)" d="M127.765 201.295C84.488 190.02 52.03 151.162 51.269 104.23v-.305.762c.61 39.771 14.781 75.124 37.029 99.047 4.724.61 9.295 1.067 14.019 1.067 8.686-.305 17.524-1.371 25.448-3.505z" opacity=".4" style="fill:url(#c)"/>
  <path fill="url(#d)" d="M113.363 66.362c.761.305 2.167.868 2.93 1.02 3.352-3.505 7.526-7.103 11.64-9.54-7.466-4.42-16.674-6.91-25.97-6.91-27.733 0-50.162 22.287-50.924 49.716l-.153 1.676c-.304-.61-.152-1.22.153-1.676 7.924-26.362 35.352-41.753 62.324-34.286z" opacity=".25" style="fill:url(#d)"/>
</svg>
